!!!COM: Buxtehude, Dietrich
!!!CDT: ~1637///-1707/05/09/
!!!ODT: ~1694///
!!!OTL: Sonata in F Major, Op. 1, No. 1
!!!OPS: Op. 1
!!!ONM: No. 1
!!!SCA: BuxWV 252
!!!OMD: 3. Adagio
!!!URL: http://www.lysator.liu.se/~tuben/scores
!!!ONB: Johan Tufvessons, ed.
!!!SMA: facsmile of the original edition at Uppsala University
**kern	**kern	**kern
*staff3	*staff2	*staff1
*Icemba	*Iviola	*Ivioln
*clefF4	*clefC3	*clefG2
*k[b-]	*k[b-]	*k[b-]
*met(C)	*met(C)	*met(C)
*M4/4	*M4/4	*M4/4
*MM60	*MM60	*MM60
=74-	=74-	=74-
1c	1r	4r
.	.	4.aa\
.	.	8gg\
.	.	(8gg\L
.	.	16aa\L
.	.	16ee\JJ)
=75	=75	=75
4d\	1r	[4.ff\
2D\	.	.
.	.	16ff\LL]
.	.	16dd\JJ
.	.	[2bb-\
4E\	.	.
=76	=76	=76
2F\	1r	4bb-\]
.	.	2aa\
2B-\	.	.
.	.	4gg\
=77	=77	=77
2A\	4r	4ff\
.	4e\	4cc#\
4F\	4.a\	4dd\
4C#/	.	[4ee\
.	8g\	.
=78	=78	=78
4D\	4f\	4ee\]
4F\	2a\	2dd\
4BBn/	.	.
4E\	[4g\	8cc\L
.	.	8bn\J
=79	=79	=79
4AA/	4g\]	4cc\
4D\	4f\	8b-/L
.	.	8a/J
4D\	2e\	4g#/
4C/	.	[4a/
=80	=80	=80
4BBn/	4.d\	8a/L]
.	.	8g/J
4BB-/	.	4.g/
.	8e\	.
4AA/	4c#\	.
.	.	8a/L
4GG/	[4d\	8f/
.	.	8e/J
=81	=81	=81
2AA/	4d\]	8f/L
.	.	8g/
.	4c#\	8e/
.	.	8f/J
2DD/	2d\	2f;/
=82	=82	=82
4r	4r	4r
4BB-/	2d\	4f/
2GG/	.	2b-\
.	4e\	.
=83	=83	=83
2D\	2f\	4r
.	.	4a/
4r	4r	[2dd\
4BB-/	[4b-\	.
=84	=84	=84
1F	4b-\]	4dd\]
.	4a\	4cc\
.	4.a\	4.cc\
.	8g\	8b-\
=85	=85	=85
1F;	1a;	1cc;
==	==	==
*-	*-	*-
!!!ENC: Craig Stuart Sapp
!!!END: 2004/12/15/
